!!!SOCIAL_FUNCTION:	songs of the hiding-stick game
!!!PDT:	1918

Specific Region: Dakotas, Minnesota, Montana, Nebraska
!!!REG: Dakotas and Montana
!!!LING_GROUP: Siouan
!!!LANG: Tone
!!!OTL@ENG: Song When a Game Is Almost Won
!!!ONM: No. 213
**kern
*Imale
*clefF4
*k[f#c#g#d#a#]
*M3/4
*>[A,B,B]
*>norep[A,B]
*>A
*MM108
8F#
8g#
8f#
=1
2f#
8d#
8c#
=2
4.d#
8f#
8f#
8d#
=3
2c#
8B
8G#
=4
4.B
8d#
8d#
8c#
=5
2B
8B
8G#
=6
4.B
*>B
=!|:
8f#
4f#
=7
2f#
8d#
8c#
=8
4.d#
8f#
8f#
8d#
=9
2c#
8B
8G#
=10
4.B
8d#
8d#
8c#
=11
2B
8B
8G#
=12
4.B
==:|!
*-
!!!CNT: Native American -- Sioux
!!!MRD: 1911/07//-1914///
!!!OCL: Frances Densmore
!!!YOR1: Teton Sioux Music, Bulletin 61,
!!!YOR2: Bureau of American Ethnology, Smithsonian Institution
!!!PPR: Government Printing Office
!!!PPP: Washington, D.C.
!!!PDT: 1918///
!!!ENC: Craig Stuart Sapp
!!!END: 2002/03/25/
!!!EEV: 2002/03/31/
!!!AGN: Game Song/Song of the Hiding-stick Game
!!!MPN@@SIO: Hanghe'-pikte
!!!MPN@ENG: Kills-at-Night
!!!TXO: Teton Sioux
!!!MLC: Standing Rock Reservation, South Dakota, United States of America
!!!ARL: 45.9/-100.7#
!!!catalog: Catalogue No. 599
!!!PPG: 490
!!!EFL: 218/245
!!!VTS: 2383984647
